assets/images/logos_facebook.svg

<svg width="29" height="28" viewBox="0 0 29 28" fill="none" xmlns="http://www.w3.org/2000/svg">
<g clip-path="url(#clip0_191_1216)">
<path d="M28.5 14C28.5 6.26806 22.2319 0 14.5 0C6.76806 0 0.5 6.26806 0.5 14C0.5 20.9877 5.61962 26.7797 12.3125 27.8299V18.0469H8.75781V14H12.3125V10.9156C12.3125 7.40688 14.4027 5.46875 17.6006 5.46875C19.1322 5.46875 20.7344 5.74219 20.7344 5.74219V9.1875H18.9691C17.2299 9.1875 16.6875 10.2667 16.6875 11.3739V14H20.5703L19.9496 18.0469H16.6875V27.8299C23.3804 26.7797 28.5 20.9879 28.5 14Z" fill="#1877F2"/>
<path d="M19.9496 18.0469L20.5703 14H16.6875V11.3739C16.6875 10.2667 17.2299 9.1875 18.9691 9.1875H20.7344V5.74219C20.7344 5.74219 19.1322 5.46875 17.6006 5.46875C14.4027 5.46875 12.3125 7.40688 12.3125 10.9156V14H8.75781V18.0469H12.3125V27.8299C13.0361 27.9433 13.7675 28.0002 14.5 28C15.2325 28.0002 15.9639 27.9434 16.6875 27.8299V18.0469H19.9496Z" fill="white"/>
</g>
<defs>
<clipPath id="clip0_191_1216">
<rect width="28" height="28" fill="white" transform="translate(0.5)"/>
</clipPath>
</defs>
</svg>

<svg xmlns="http://www.w3.org/2000/svg" width="29" height="28" fill="none"><g clip-path="url(#a)"><path fill="#1877F2" d="M28.5 14c0-7.732-6.268-14-14-14S.5 6.268.5 14c0 6.988 5.12 12.78 11.813 13.83v-9.783H8.758V14h3.555v-3.084c0-3.51 2.09-5.447 5.288-5.447 1.531 0 3.133.273 3.133.273v3.446H18.97c-1.74 0-2.282 1.079-2.282 2.186V14h3.883l-.62 4.047h-3.262v9.783C23.38 26.78 28.5 20.988 28.5 14"/><path fill="#fff" d="M19.95 18.047 20.57 14h-3.883v-2.626c0-1.107.543-2.187 2.282-2.187h1.765V5.743s-1.602-.273-3.133-.273c-3.198 0-5.288 1.938-5.288 5.447V14H8.758v4.047h3.555v9.783a14.104 14.104 0 0 0 4.374 0v-9.783z"/></g><defs><clipPath id="a"><path fill="#fff" d="M.5 0h28v28H.5z"/></clipPath></defs></svg>
